dist/assets/img/questions/5/answers/1.svg

<svg width="596" height="264" viewBox="0 0 596 264" fill="none" xmlns="http://www.w3.org/2000/svg">
<g filter="url(#filter0_di_1495_72017)">
<path fill-rule="evenodd" clip-rule="evenodd" d="M80.9728 28C76.9425 28 73.5415 30.9981 73.036 34.9965L71.2076 49.4575C70.8252 52.4822 68.745 54.9925 65.9507 56.212C56.2829 60.4311 43.4416 68.6781 40.0032 80.5354C39.9832 80.6044 40.0598 80.6608 40.1197 80.6211C43.8439 78.156 50.7112 73.6105 59.0592 70.9168C63.9133 69.3505 68.1456 73.6754 67.5058 78.7357L51.7946 202.997C51.1904 207.775 54.9149 212 59.7314 212H526.34C530.37 212 533.771 209.002 534.276 205.003L555.518 37.0035C556.122 32.225 552.398 28 547.581 28H80.9728Z" fill="#FFF0CB"/>
</g>
<defs>
<filter id="filter0_di_1495_72017" x="0" y="0" width="595.582" height="264" filterUnits="userSpaceOnUse" color-interpolation-filters="sRGB">
<feFlood flood-opacity="0" result="BackgroundImageFix"/>
<feColorMatrix in="SourceAlpha" type="matrix" values="0 0 0 0 0 0 0 0 0 0 0 0 0 0 0 0 0 0 127 0" result="hardAlpha"/>
<feOffset dy="12"/>
<feGaussianBlur stdDeviation="20"/>
<feComposite in2="hardAlpha" operator="out"/>
<feColorMatrix type="matrix" values="0 0 0 0 1 0 0 0 0 1 0 0 0 0 1 0 0 0 1 0"/>
<feBlend mode="normal" in2="BackgroundImageFix" result="effect1_dropShadow_1495_72017"/>
<feBlend mode="normal" in="SourceGraphic" in2="effect1_dropShadow_1495_72017" result="shape"/>
<feColorMatrix in="SourceAlpha" type="matrix" values="0 0 0 0 0 0 0 0 0 0 0 0 0 0 0 0 0 0 127 0" result="hardAlpha"/>
<feOffset dy="-4"/>
<feGaussianBlur stdDeviation="4"/>
<feComposite in2="hardAlpha" operator="arithmetic" k2="-1" k3="1"/>
<feColorMatrix type="matrix" values="0 0 0 0 0.883659 0 0 0 0 0.635314 0 0 0 0 0.0558422 0 0 0 0.4 0"/>
<feBlend mode="normal" in2="shape" result="effect2_innerShadow_1495_72017"/>
</filter>
</defs>
</svg>

<svg width="596" height="264" viewBox="0 0 596 264" fill="none" xmlns="http://www.w3.org/2000/svg"><g filter="url(#filter0_di_1495_72017)"><path fill-rule="evenodd" clip-rule="evenodd" d="M80.973 28a8 8 0 00-7.937 6.996l-1.828 14.462c-.383 3.024-2.463 5.535-5.257 6.754-9.668 4.22-22.51 12.466-25.948 24.323a.077.077 0 00.117.086c3.724-2.465 10.591-7.01 18.94-9.704 4.853-1.567 9.086 2.758 8.446 7.819L51.795 202.997c-.605 4.778 3.12 9.003 7.936 9.003H526.34a7.999 7.999 0 007.936-6.997l21.242-168c.604-4.778-3.12-9.003-7.937-9.003H80.973z" fill="#FFF0CB"/></g><defs><filter id="filter0_di_1495_72017" x="0" y="0" width="595.582" height="264" filterUnits="userSpaceOnUse" color-interpolation-filters="sRGB"><feFlood flood-opacity="0" result="BackgroundImageFix"/><feColorMatrix in="SourceAlpha" values="0 0 0 0 0 0 0 0 0 0 0 0 0 0 0 0 0 0 127 0" result="hardAlpha"/><feOffset dy="12"/><feGaussianBlur stdDeviation="20"/><feComposite in2="hardAlpha" operator="out"/><feColorMatrix values="0 0 0 0 1 0 0 0 0 1 0 0 0 0 1 0 0 0 1 0"/><feBlend in2="BackgroundImageFix" result="effect1_dropShadow_1495_72017"/><feBlend in="SourceGraphic" in2="effect1_dropShadow_1495_72017" result="shape"/><feColorMatrix in="SourceAlpha" values="0 0 0 0 0 0 0 0 0 0 0 0 0 0 0 0 0 0 127 0" result="hardAlpha"/><feOffset dy="-4"/><feGaussianBlur stdDeviation="4"/><feComposite in2="hardAlpha" operator="arithmetic" k2="-1" k3="1"/><feColorMatrix values="0 0 0 0 0.883659 0 0 0 0 0.635314 0 0 0 0 0.0558422 0 0 0 0.4 0"/><feBlend in2="shape" result="effect2_innerShadow_1495_72017"/></filter></defs></svg>
